!!!!SEGMENT: pl-kozmzk--mzk-m-159--024_walczynski-franciszek--praeludia-organi-op-5-maestoso.krn
!!!cenid: 18xx:2767
!!!COM: Walczyński, Franciszek
!!!COM-rismID:
!!!CDT: ~1852-1937
!!!CNT: Polish
!!!GTL: Praeludia organi op. 5
!!!OTL: 24. Maestoso
!!!PDT: 1894
!!!AGN: Secular; Prelude
!!!SMS-siglum: PL-KOZmzk
!!!SMS-shelfmark: mzk/m/159
!!!SMS-shelfwork: 024 G
!!!SMS-variant:
!!!SMS-altvar:
!!!NIFC-rismSourceID: 1001118824
!!!NIFC-islandoraID: pl-kozmzk:2265
!!!URL-pdf-islandora: https://repozytorium.nifc.pl/islandora/object/pl-kozmzk%3A2265/datastream/PDF/view
!!!URL-scan: https://polish.musicsources.pl/pl/lokalizacje/galeria/druki-muzyczne/7406 @EN{Scan on Polish Music Herritage in Open Access Website} @PL{Skany w portalu Dziedzictwo Muzyki Polskiej w otwartym dostępie}
!!!ONB-nifc: UWAGA: numeracja plików zgodna z numeracją źrodłową
!!!OMD: 24. Mestoso.
!!!AIN: 1 empty 1 organ
!!!key:
**kern	**kern	**dynam
*part2	*part1	*part1
*staff2	*staff1	*
*Iorgan	*Iempty	*
*I"[Organo]	*	*
*clefF4	*clefG2	*
*k[f#c#g#d#]	*k[f#c#g#d#]	*
*c#:	*c#:	*
*M4/4	*M4/4	*
*met(c)	*met(c)	*
=1	=1	=1
*^	*^	*
(4c#/	(4C#\	(4ee/	(1g#\	f
4B#X/	4D#\	4dd#/	.	.
[2c#/	4E\	4cc#/	.	.
.	4E#X\	4b/	.	.
=2	=2	=2	=2	=2
4c#/]	4F#\	4a/	4f#\	.
4Bn/	4G#\	4g#/	4e\	.
2B/)	2A\)	4f#/	2d#\)	.
.	.	4cc#/)	.	.
=3	=3	=3	=3	=3
[1B/	2G#\	(4b/	(2e\	.
.	.	4ee/	.	.
.	2D#\	4b/	2f#\	.
.	.	4a/	.	.
=4	=4	=4	=4	=4
1B/]	2E\	4a/	4f#\	.
.	.	4g#/	2e\	.
.	2BB\	2f#/)	.	.
.	.	.	4d#\)	.
=5	=5	=5	=5	=5
!LO:TX:b:i:t=Ped.	!	!	!	!
(2.G#/	(2BB#X\	(4g#/	2d#\	p
.	.	4f#/	.	.
.	4C#\	4e/	4c#\	.
4c#/	4AA\	4a/	4f#\	.
=6	=6	=6	=6	=6
4B/	4BBn\	4g#/	4e\	.
4A/	4BB#X\	4f#/	4d#\	.
4G#/	4C#\	4e/	4c#\	.
4A/)	4FF#\)	4f#/)	([4d#\	.
=7	=7	=7	=7	=7
!	!	!	!	!LO:DY:a
!	!	!	!	!LO:HP:a
(2G#/	(1GG#\	(2e/	4d#\]	pp >
.	.	.	2c#\	.
2F#/	.	2d#/	.	.
.	.	.	4B#X\	.
=8	=8	=8	=8	=8
1E/)	1C#\;)	1c#/;)	1G#\)	]
*v	*v	*	*	*
*	*v	*v	*
==	==	==
*-	*-	*-
!!!system-decoration: {(s1,s2)}
!!!EED: Andrzej Borzym
!!!EEV: 2021-08-08
!!!ENC: Krzysztof Stępień
!!!END: 2021-07-26
